X:38
T: ES BLIES EIN JAEGER WOL IN SEIN JAEGERHORN
N: E0019D
O: Europa, Mitteleuropa, Deutschland, Bayern; Wuerttemberg; Thueringen
R: Sage, Maerchen -, Zauber - Lied
M: 2/4
L: 1/16
K: Eb
EG | B3cB2A2 | G3FE2
B2 | c2B2A2G2 | F4z2
EG | B2B2B2e2 | c3Bc2
A2 | G4F4 | E4z2
DE | F2FGF2FG | F4z2
F2 | G2B2G2e2 | B4z2
EG | B2B2B2e2 | c3Bc2
A2 | G4F4 | E4z2

